X:56
T:Lady Cunningham’s Strathspey. 2voices. Dix.56
M:C
L:1/8
Q:1/4=80
S:Anon. MS dated 1811, from Dixon collection, Holton le Moor, Lincs.
R:strathspey
N:Repeat signs added at start of A and end of B
O:England;Lincolnshire;Holton le Moor
Z:vmp.R.Greig 2012 <http://www.village-music-project.org.uk>
K:A
[V:1]|:”tr”c/>B/|A”tr”A,A,>C E>FEc|”tr”B>c {d}cB/A/ GB B”tr”c/>B/|AA,A,>C EF<Ed|{d}”tr”c>e {d}cB/A/ EAA:|!
[V:2]|:”slow”z|A,2A,,2C,2A,,2|G,,2A,,2E,2E,,2″rest omitted”|A,2A,,2C,2A,,2|E,2E,,2A,,2A,,:|!
[V:1]|:”tr”c/>d/|”tr”efec (agfe)|”tr”fg/a/ e/c/”tr”B/A/”bar line omitted” BG “tr”Bc/>d/|e>fec (agfe)|”tr”fg/a/ e/c/”tr”B/A/ EA A”tr”c/>d/|!
[V:2]|:z|C2A,2F,E,D,C,|D,2A,2E,2E,,z|C2A,2F,E,D,C,|D,2E,2A,,2A,,z|!
[V:1].e.c.A.a .f.d.B.b|{d}c/B/c/a/ e/c/”tr”B/A/ GB Bc/d/|{cd}.e>.d.c.B .A.G.F.E|F/G/A “tr”E>C A,AA:|
[V:2]A,2A,2A,2A,2|A,2A,,2E,2E,,2|CB,A,G, F,E,D,C,|D,2″qu in ms”E,2 A,,2A,,:|

